assets/icons/no-package/snap-filled.svg

<?xml version="1.0" encoding="UTF-8" standalone="no"?>
<svg
   viewBox="0 0 24 24"
   height="24"
   id="svg7384"
   version="1.1"
   width="24"
   sodipodi:docname="snap-filled.svg"
   inkscape:version="1.2 (1:1.2.1+202207142221+cd75a1ee6d)"
   xmlns:inkscape="http://www.inkscape.org/namespaces/inkscape"
   xmlns:sodipodi="http://sodipodi.sourceforge.net/DTD/sodipodi-0.dtd"
   xmlns="http://www.w3.org/2000/svg"
   xmlns:svg="http://www.w3.org/2000/svg"
   xmlns:rdf="http://www.w3.org/1999/02/22-rdf-syntax-ns#"
   xmlns:cc="http://creativecommons.org/ns#"
   xmlns:dc="http://purl.org/dc/elements/1.1/">
  <sodipodi:namedview
     id="namedview25"
     pagecolor="#ffffff"
     bordercolor="#666666"
     borderopacity="1.0"
     inkscape:pageshadow="2"
     inkscape:pageopacity="0.0"
     inkscape:pagecheckerboard="0"
     showgrid="false"
     inkscape:zoom="11.313709"
     inkscape:cx="-22.98097"
     inkscape:cy="4.1100582"
     inkscape:window-width="1920"
     inkscape:window-height="1016"
     inkscape:window-x="0"
     inkscape:window-y="0"
     inkscape:window-maximized="1"
     inkscape:current-layer="svg7384"
     inkscape:snap-page="true"
     inkscape:snap-global="true"
     inkscape:showpageshadow="2"
     inkscape:deskcolor="#d1d1d1">
    <inkscape:grid
       type="xygrid"
       id="grid829" />
    <inkscape:grid
       type="xygrid"
       id="grid831"
       dotted="true"
       spacingx="0.5"
       spacingy="0.5"
       empspacing="10" />
  </sodipodi:namedview>
  <metadata
     id="metadata20854">
    <rdf:RDF>
      <cc:Work
         rdf:about="">
        <dc:format>image/svg+xml</dc:format>
        <dc:type
           rdf:resource="http://purl.org/dc/dcmitype/StillImage" />
      </cc:Work>
    </rdf:RDF>
  </metadata>
  <defs
     id="defs7386">
    <linearGradient
       id="linearGradient5606"
       inkscape:swatch="solid">
      <stop
         id="stop5608"
         offset="0"
         style="stop-color:#000000;stop-opacity:1;" />
    </linearGradient>
    <linearGradient
       id="linearGradient4526"
       inkscape:swatch="solid">
      <stop
         id="stop4528"
         offset="0"
         style="stop-color:#ffffff;stop-opacity:1;" />
    </linearGradient>
    <linearGradient
       id="linearGradient3600-4"
       inkscape:swatch="gradient">
      <stop
         id="stop3602-7"
         offset="0"
         style="stop-color:#f4f4f4;stop-opacity:1" />
      <stop
         id="stop3604-6"
         offset="1"
         style="stop-color:#dbdbdb;stop-opacity:1" />
    </linearGradient>
  </defs>
  <path
     id="path866"
     style="color:#000000;fill:#808080;fill-opacity:1;-inkscape-stroke:none"
     d="M 3.3632812 2.65625 L 2.6367188 3.34375 L 4.0429688 4.8339844 C 4.0141396 5.0389331 4 5.2583863 4 5.5 L 4 18.5 C 4 19.041664 4.0635992 19.483918 4.2304688 19.859375 C 4.3973381 20.234832 4.6879021 20.527544 5.0273438 20.697266 C 5.7062271 21.036706 6.500003 21 7.5 21 L 15.5 21 C 16.499997 21 17.293773 21.036708 17.972656 20.697266 C 18.198692 20.584247 18.401904 20.415287 18.5625 20.205078 L 19.636719 21.34375 L 20.363281 20.65625 L 18.957031 19.167969 L 18.957031 19.166016 L 12.677734 12.519531 L 12 11.800781 L 11.242188 10.998047 L 9.5683594 9.2265625 L 4.4375 3.7949219 L 3.3632812 2.65625 z M 6.7871094 3 C 6.210278 3.0047633 5.7086527 3.0383211 5.2578125 3.2050781 L 12 10.34375 L 12 10.009766 L 14.064453 10.951172 L 13.34375 11.765625 L 19 17.755859 L 19 5.5 C 19 4.9583349 18.9364 4.5160812 18.769531 4.140625 C 18.602661 3.7651688 18.312099 3.4724552 17.972656 3.3027344 C 17.293773 2.9632926 16.499997 3 15.5 3 L 7.5 3 C 7.2500007 3 7.0127574 2.99814 6.7871094 3 z M 6.1660156 8 L 7.4824219 8.4746094 L 11.242188 12.455078 L 11.242188 13.458984 L 6.1660156 8 z M 12.220703 9 L 16 9 L 16.873047 11 L 12.220703 9 z M 9.7558594 13.167969 L 10.988281 14.402344 L 7.5 17.890625 L 9.7558594 13.167969 z M 12 13.257812 L 12.011719 13.271484 L 12 13.285156 L 12 13.257812 z " />
</svg>

<svg height="24" width="24" xmlns="http://www.w3.org/2000/svg"><path style="color:#000;fill:gray;fill-opacity:1;-inkscape-stroke:none" d="m3.363 2.656-.726.688 1.406 1.49A4.768 4.768 0 0 0 4 5.5v13c0 .542.064.984.23 1.36.167.375.458.668.797.837.68.34 1.473.303 2.473.303h8c1 0 1.794.037 2.473-.303a1.71 1.71 0 0 0 .59-.492l1.074 1.139.726-.688-1.406-1.488v-.002l-6.28-6.646L12 11.8l-.758-.802-1.674-1.771-5.13-5.432-1.075-1.139zM6.787 3c-.577.005-1.078.038-1.53.205L12 10.344v-.334l2.064.941-.72.815L19 17.756V5.5c0-.542-.064-.984-.23-1.36a1.72 1.72 0 0 0-.797-.837C17.293 2.963 16.5 3 15.5 3h-8c-.25 0-.487-.002-.713 0zm-.621 5 1.316.475 3.76 3.98v1.004L6.166 8zm6.055 1H16l.873 2-4.652-2zm-2.465 4.168 1.232 1.234L7.5 17.891l2.256-4.723zm2.244.09.012.013-.012.014v-.027z"/></svg>
